svg/fluentui-system-icons/ic_fluent_hand_left_chat_20_filled.svg

<svg width="20" height="20" viewBox="0 0 20 20" fill="none" xmlns="http://www.w3.org/2000/svg">
<path d="M11 8.5V2.75C11 2.33579 10.6642 2 10.25 2C9.83579 2 9.5 2.33579 9.5 2.75V8.5C9.5 8.77614 9.27614 9 9 9C8.72386 9 8.5 8.77614 8.5 8.5V3.75C8.5 3.33579 8.16421 3 7.75 3C7.33579 3 7 3.33579 7 3.75V10.2498C6.33836 9.82409 5.60805 9.5 5 9.5C4.02892 9.5 3.21255 9.82415 3.01591 10.6155C3.0041 10.6631 3 10.7122 3 10.7611C3 10.9115 3.0708 11.0531 3.1911 11.1433L4.50348 12.1276C5.56589 12.9244 6.56663 13.9933 7.26454 15.1163C7.64218 15.7239 7.98263 16.3529 8.31824 16.9844C8.55712 17.4336 8.73784 17.7337 9.15178 17.8849L9.49033 16.7731C9.17516 16.0794 8.99984 15.3091 8.99984 14.5C8.99984 11.8011 10.9438 9.55622 13.5079 9.08921C13.5027 9.06026 13.5 9.03045 13.5 9V3.75C13.5 3.33579 13.1642 3 12.75 3C12.3358 3 12 3.33579 12 3.75V8.5C12 8.77614 11.7761 9 11.5 9C11.2239 9 11 8.77614 11 8.5ZM16 5.25V9.20708C15.5232 9.0722 15.02 9.00001 14.5 9V5.25C14.5 4.83579 14.8358 4.5 15.25 4.5C15.6642 4.5 16 4.83579 16 5.25ZM19 14.5C19 16.9853 16.9853 19 14.5 19C13.7085 19 12.9647 18.7956 12.3185 18.4368L10.5294 18.9812C10.2162 19.0765 9.92358 18.7838 10.0189 18.4707L10.5635 16.6821C10.2045 16.0358 10 15.2918 10 14.5C10 12.0147 12.0147 10 14.5 10C16.9853 10 19 12.0147 19 14.5ZM12.5 13C12.2239 13 12 13.2239 12 13.5C12 13.7761 12.2239 14 12.5 14H16.5C16.7761 14 17 13.7761 17 13.5C17 13.2239 16.7761 13 16.5 13H12.5ZM12 15.5C12 15.7761 12.2239 16 12.5 16H14.5C14.7761 16 15 15.7761 15 15.5C15 15.2239 14.7761 15 14.5 15H12.5C12.2239 15 12 15.2239 12 15.5Z" fill="#212121"/>
</svg>

<svg xmlns="http://www.w3.org/2000/svg" width="20" height="20"><path d="M11 8.5V2.75a.75.75 0 0 0-1.5 0V8.5a.5.5 0 0 1-1 0V3.75a.75.75 0 0 0-1.5 0v6.5c-.662-.426-1.392-.75-2-.75-.971 0-1.787.324-1.984 1.116A.604.604 0 0 0 3 10.76c0 .15.07.292.191.382l1.312.985c1.063.796 2.064 1.865 2.762 2.988a32.02 32.02 0 0 1 1.053 1.868c.24.45.42.75.834.9l.338-1.11a5.502 5.502 0 0 1 4.018-7.684A.504.504 0 0 1 13.5 9V3.75a.75.75 0 0 0-1.5 0V8.5a.5.5 0 0 1-1 0Zm5-3.25v3.957A5.504 5.504 0 0 0 14.5 9V5.25a.75.75 0 0 1 1.5 0Zm3 9.25a4.5 4.5 0 0 1-6.681 3.937l-1.79.544a.41.41 0 0 1-.51-.51l.544-1.789A4.5 4.5 0 1 1 19 14.5ZM12.5 13a.5.5 0 0 0 0 1h4a.5.5 0 0 0 0-1h-4Zm-.5 2.5a.5.5 0 0 0 .5.5h2a.5.5 0 0 0 0-1h-2a.5.5 0 0 0-.5.5Z"/></svg>
